X:1
T:[ID 5-53b]
T:[ID 5-53b]
T:Bezeichnung standardisiert: Menuett Menuet
T:Urheber unbekannt Datum in der hier transkribierten schriftlichen Quelle: 1773
C:Urheber unbekannt
C:Datum in der hier transkribierten schriftlichen Quelle: 1773
L:1/8
M:3/4
K:D
V:1 treble 
V:1
 a2 aaaa | f2 defg |"^O)" e2 dcBA | dcdefg |"^O)" e2 dcBA | dcdefg | a2 bagf | f2 e4 :: e2 eeee | %9
 c2 ABcA | a2 aaaa | f2 defd | bagf e2 | agfe d2 | egfgac | d6 :| %16

